;FLAVOR:Marlin
;TIME:15251
;Filament used: 12.8084m
;Layer height: 0.2
;MINX:45.2
;MINY:30.486
;MINZ:0.3
;MAXX:175.664
;MAXY:186.323
;MAXZ:15.9
;Generated with Cura_SteamEngine 5.4.0
M140 S60
M105
M190 S60
M104 S200
M105
M109 S200
M82 ;absolute extrusion mode
G28 ;Home
G1 Z15.0 F6000 ;Move the platform down 15mm
;Prime the extruder
G92 E0
G1 F200 E3
G92 E0
G92 E0
G92 E0
G1 F2700 E-5
;LAYER_COUNT:79
;LAYER:0
M107
;MESH:Moonlander tenting kit v10.stl
G0 F4500 X49.258 Y94.453 Z0.3
;TYPE:WALL-INNER
G1 F2700 E0
G1 F1500 X48.444 Y94.957 E0.04776
G1 X47.731 Y95.574 E0.09481
G1 X47.125 Y96.294 E0.14176
G1 X46.632 Y97.115 E0.18953
G1 X46.275 Y98.002 E0.23724
G1 X46.067 Y98.918 E0.2841
G1 X46 Y99.917 E0.33405
G1 X46 Y170.751 E3.86797
G1 X46.071 Y171.684 E3.91466
G1 X46.274 Y172.567 E3.95986
G1 X46.612 Y173.416 E4.00545
G1 X47.073 Y174.203 E4.05095
G1 X47.643 Y174.905 E4.09607
G1 X48.31 Y175.514 E4.14113
G1 X49.06 Y176.012 E4.18604
G1 X49.926 Y176.415 E4.2337
G1 X65.545 Y182.294 E5.0663
G1 X68.458 Y182.263 E5.21164
G1 X80.599 Y182.262 E5.81736
G1 X82.044 Y182.251 E5.88945
G1 X114.5 Y182.246 E7.50869
G1 X114.5 Y175.676 E7.83647
G1 X114.613 Y175.367 E7.85288
G1 X114.866 Y175.056 E7.87288
G1 F1395.3 X115.323 Y174.815 E7.90059
G1 X114.786 Y174.778 E7.92946
G1 F1500 X114.14 Y174.695 E7.96196
G1 X113.412 Y174.392 E8.0013
G1 X112.809 Y173.927 E8.03929
G1 X112.316 Y173.299 E8.07912
G1 X112.009 Y172.566 E8.11877
G1 X111.92 Y171.876 E8.15347
G1 X111.917 Y169.717 E8.26119
G1 X112.009 Y169.008 E8.29686
G1 X112.314 Y168.276 E8.33642
G1 X112.791 Y167.66 E8.37529
G1 X113.406 Y167.184 E8.41409
G1 X114.137 Y166.878 E8.45362
G1 X114.827 Y166.789 E8.48833
G1 X158.498 Y166.786 E10.66709
G1 X159.205 Y166.885 E10.7027
G1 X159.924 Y167.193 E10.74173
G1 X160.538 Y167.67 E10.78052
G1 X161.009 Y168.29 E10.81936
G1 X161.306 Y169.009 E10.85817
G1 X161.394 Y169.691 E10.89248
G1 X161.399 Y171.848 E11.0001
G1 X161.305 Y172.57 E11.03642
G1 X160.996 Y173.289 E11.07546
G1 X160.53 Y173.91 E11.1142
G1 X159.902 Y174.393 E11.15372
G1 X159.176 Y174.693 E11.19292
G1 X158.469 Y174.786 E11.22849
G1 X150.682 Y174.786 E11.61699
G1 F1421.8 X150 Y174.808 E11.6529
G1 X150.601 Y175.029 E11.68661
G1 F1500 X150.924 Y175.445 E11.71288
G1 X151 Y175.83 E11.73246
G1 X151 Y182.247 E12.05261
G1 X160.802 Y182.251 E12.54163
G1 X168.04 Y182.291 E12.90274
G1 X173.125 Y173.906 E13.39198
G1 X173.505 Y173.165 E13.43353
G1 X173.775 Y172.404 E13.47381
G1 X173.94 Y171.602 E13.51466
G1 X174 Y170.748 E13.55738
G1 X174 Y41.316 E20.01476
G1 X173.911 Y39.976 E20.08176
G1 X173.657 Y38.704 E20.14648
G1 X173.234 Y37.453 E20.21236
G1 X172.656 Y36.283 E20.27747
G1 X171.935 Y35.206 E20.34213
G1 X171.073 Y34.221 E20.40743
G1 X170.08 Y33.351 E20.4733
G1 X168.999 Y32.628 E20.53818
G1 X167.833 Y32.053 E20.60304
G1 X166.582 Y31.629 E20.66894
G1 X165.309 Y31.375 E20.7337
G1 X163.964 Y31.287 E20.80095
G1 X110.759 Y31.287 E23.45536
G1 X109.511 Y31.377 E23.51778
G1 X108.324 Y31.635 E23.57838
G1 X107.192 Y32.056 E23.63864
G1 X106.125 Y32.638 E23.69927
G1 X105.16 Y33.36 E23.7594
G1 X104.295 Y34.227 E23.8205
G1 X103.568 Y35.198 E23.88102
G1 X102.992 Y36.251 E23.9409
G1 X102.568 Y37.388 E24.00144
G1 X102.309 Y38.581 E24.06235
G1 X102.219 Y39.825 E24.12457
G1 X102.22 Y62.852 E25.27339
G1 X102.11 Y65.392 E25.40023
G1 X101.796 Y67.893 E25.52599
G1 X101.273 Y70.393 E25.65341
G1 X100.543 Y72.847 E25.78115
G1 X99.613 Y75.23 E25.90877
G1 X98.463 Y77.578 E26.03921
G1 X97.197 Y79.704 E26.16265
G1 X95.712 Y81.792 E26.29048
G1 X94.001 Y83.81 E26.42248
G1 X92.183 Y85.624 E26.55061
G1 X90.291 Y87.227 E26.67432
G1 X88.144 Y88.76 E26.80594
G1 X86.012 Y90.029 E26.92972
G1 X83.633 Y91.191 E27.06181
G1 X81.242 Y92.121 E27.18981
G1 X78.789 Y92.849 E27.31746
G1 X76.327 Y93.363 E27.44294
G1 X73.742 Y93.684 E27.5729
G1 X71.258 Y93.786 E27.69693
G1 X52.044 Y93.786 E28.65552
G1 X51.056 Y93.866 E28.70497
G1 X50.128 Y94.089 E28.75259
G1 X49.258 Y94.453 E28.79964
G0 F4500 X49.074 Y94.097
G1 F1500 X48.207 Y94.634 E28.85052
G1 X47.445 Y95.292 E28.90075
G1 X46.798 Y96.061 E28.95089
G1 X46.273 Y96.936 E29.00179
G1 X45.892 Y97.882 E29.05267
G1 X45.67 Y98.86 E29.10271
G1 X45.6 Y99.903 E29.15486
G1 X45.6 Y170.766 E32.69023
G1 X45.674 Y171.744 E32.73916
G1 X45.891 Y172.686 E32.78739
G1 X46.251 Y173.592 E32.83603
G1 X46.743 Y174.432 E32.88459
G1 X47.351 Y175.181 E32.93272
G1 X48.063 Y175.83 E32.98079
G1 X48.864 Y176.362 E33.02876
G1 X49.771 Y176.784 E33.07867
G1 X65.475 Y182.694 E33.91579
G1 X68.458 Y182.663 E34.06462
G1 X80.602 Y182.662 E34.67049
G1 X82.044 Y182.651 E34.74243
G1 X114.9 Y182.646 E36.38162
G1 X114.9 Y175.738 E36.72627
G1 X114.967 Y175.552 E36.73613
G1 X115.182 Y175.32 E36.75191
G1 X115.417 Y175.23 E36.76446
G1 X150 Y175.23 E38.48982
G1 X150.361 Y175.349 E38.50878
G1 X150.555 Y175.599 E38.52457
G1 X150.6 Y175.83 E38.53631
G1 X150.6 Y182.647 E38.87641
G1 X160.8 Y182.651 E39.38529
G1 X168.265 Y182.693 E39.75773
G1 X173.474 Y174.102 E40.25897
G1 X173.873 Y173.324 E40.30259
G1 X174.161 Y172.512 E40.34557
G1 X174.338 Y171.657 E40.38913
G1 X174.4 Y170.762 E40.43389
G1 X174.4 Y41.303 E46.89263
G1 X174.308 Y39.923 E46.96163
G1 X174.045 Y38.6 E47.02892
G1 X173.604 Y37.3 E47.09741
G1 X173.003 Y36.082 E47.16517
G1 X172.253 Y34.962 E47.23242
G1 X171.356 Y33.938 E47.30034
G1 X170.324 Y33.033 E47.36882
G1 X169.2 Y32.281 E47.43629
G1 X167.986 Y31.682 E47.50382
G1 X166.686 Y31.241 E47.57231
G1 X165.361 Y30.978 E47.63971
G1 X163.977 Y30.887 E47.7089
G1 X110.744 Y30.887 E50.36471
G1 X109.454 Y30.98 E50.42923
G1 X108.212 Y31.25 E50.49264
G1 X107.026 Y31.691 E50.55577
G1 X105.909 Y32.301 E50.61927
G1 X104.898 Y33.057 E50.68225
G1 X103.991 Y33.964 E50.74624
G1 X103.231 Y34.981 E50.80958
G1 X102.628 Y36.085 E50.87234
G1 X102.183 Y37.275 E50.93573
G1 X101.912 Y38.524 E50.99949
G1 X101.819 Y39.811 E51.06387
G1 X101.82 Y62.852 E52.21339
G1 X101.713 Y65.342 E52.33773
G1 X101.402 Y67.824 E52.46252
G1 X100.879 Y70.319 E52.58971
G1 X100.165 Y72.718 E52.71458
G1 X99.246 Y75.071 E52.84061
G1 X98.143 Y77.33 E52.96603
G1 X96.853 Y79.5 E53.09197
G1 X95.355 Y81.599 E53.22063
G1 X93.718 Y83.527 E53.34681
G1 X91.961 Y85.285 E53.47081
G1 X89.993 Y86.952 E53.59948
G1 X87.981 Y88.389 E53.72284
G1 X85.764 Y89.709 E53.85156
G1 X83.533 Y90.799 E53.97544
G1 X81.128 Y91.738 E54.10425
G1 X78.756 Y92.445 E54.22773
G1 X76.258 Y92.969 E54.35507
G1 X73.776 Y93.28 E54.47987
G1 X71.242 Y93.386 E54.6064
G1 X52.028 Y93.386 E55.56499
G1 X50.992 Y93.47 E55.61685
G1 X50.003 Y93.708 E55.6676
G1 X49.074 Y94.097 E55.71784
G0 F4500 X49.207 Y94.364
G0 X58.729 Y98.074
G0 X59.023 Y98.113
G1 F1500 X59.288 Y97.479 E55.75213
G1 X59.7 Y96.944 E55.78581
G1 X60.24 Y96.529 E55.81979
G1 X60.868 Y96.268 E55.85372
G1 X61.54 Y96.186 E55.8875
G1 X105.163 Y96.19 E58.06386
G1 X105.758 Y96.267 E58.09379
G1 X106.39 Y96.538 E58.1281
G1 X106.925 Y96.944 E58.1616
G1 X107.346 Y97.499 E58.19636
G1 X107.595 Y98.11 E58.22927
G1 X107.679 Y98.706 E58.2593
G1 X107.679 Y100.866 E58.36707
G1 X107.602 Y101.461 E58.397
G1 X107.331 Y102.093 E58.4313
G1 X106.926 Y102.629 E58.46482
G1 X106.39 Y103.034 E58.49834
G1 X105.758 Y103.305 E58.53264
G1 X105.163 Y103.382 E58.56258
G1 X61.461 Y103.381 E60.74288
G1 X60.865 Y103.302 E60.77287
G1 X60.24 Y103.043 E60.80663
G1 X59.7 Y102.628 E60.8406
G1 X59.286 Y102.091 E60.87443
G1 X59.029 Y101.459 E60.90847
G1 X58.944 Y100.847 E60.9393
G1 X58.946 Y98.706 E61.04611
G1 X59.023 Y98.113 E61.07594
G0 F4500 X58.729 Y98.074
G0 X53.917 Y107.719
G0 X53.956 Y108.017
G1 F1500 X105.163 Y108.02 E63.63067
G1 X105.758 Y108.097 E63.6606
G1 X106.39 Y108.368 E63.69491
G1 X106.922 Y108.777 E63.72839
G1 X107.331 Y109.309 E63.76187
G1 X107.602 Y109.941 E63.79618
G1 X107.679 Y110.536 E63.82611
G1 X107.679 Y112.696 E63.93387
G1 X107.602 Y113.291 E63.9638
G1 X107.331 Y113.923 E63.99811
G1 X106.925 Y114.458 E64.03162
G1 X106.39 Y114.864 E64.06512
G1 X105.758 Y115.135 E64.09943
G1 X105.163 Y115.212 E64.12936
G1 X53.92 Y115.212 E66.68589
G1 X53.324 Y115.128 E66.71591
G1 X52.692 Y114.864 E66.75009
G1 X52.154 Y114.456 E66.78377
G1 X51.746 Y113.925 E66.81718
G1 X51.482 Y113.289 E66.85154
G1 X51.404 Y112.696 E66.88138
G1 X51.404 Y110.536 E66.98914
G1 X51.481 Y109.945 E67.01887
G1 X51.747 Y109.307 E67.05336
G1 X52.158 Y108.771 E67.08706
G1 X52.699 Y108.364 E67.12083
G1 X53.32 Y108.105 E67.1544
G1 X53.956 Y108.017 E67.18643
G0 F4500 X53.917 Y107.719
G0 X52.578 Y108.151
G0 X51.535 Y109.194
G0 X51.161 Y110.562
G0 X51.161 Y112.67
G0 X53.209 Y119.658
G0 X53.324 Y119.938
G1 F1500 X53.92 Y119.854 E67.21646
G1 X105.163 Y119.854 E69.77298
G1 X105.758 Y119.931 E69.80292
G1 X106.39 Y120.202 E69.83722
G1 X106.925 Y120.608 E69.87073
G1 X107.331 Y121.143 E69.90424
G1 X107.602 Y121.775 E69.93854
G1 X107.679 Y122.37 E69.96848
G1 X107.679 Y124.53 E70.07624
G1 X107.602 Y125.125 E70.10617
G1 X107.331 Y125.757 E70.14048
G1 X106.925 Y126.292 E70.17399
G1 X106.39 Y126.698 E70.20749
G1 X105.758 Y126.969 E70.2418
G1 X105.163 Y127.046 E70.27173
G1 X53.92 Y127.046 E72.82826
G1 X53.324 Y126.962 E72.85828
G1 X52.692 Y126.698 E72.89246
G1 X52.154 Y126.29 E72.92614
G1 X51.746 Y125.759 E72.95955
G1 X51.482 Y125.123 E72.99391
G1 X51.404 Y124.53 E73.02375
G1 X51.404 Y122.37 E73.13151
G1 X51.481 Y121.779 E73.16124
G1 X51.747 Y121.141 E73.19573
G1 X52.154 Y120.61 E73.22911
G1 X52.692 Y120.202 E73.26279
G1 X53.324 Y119.938 E73.29696
G0 F4500 X53.209 Y119.658
G0 X51.986 Y120.437
G0 X51.251 Y121.713
G0 X51.161 Y124.504
G0 X53.209 Y131.492
G0 X53.324 Y131.772
G1 F1500 X53.92 Y131.688 E73.32699
G1 X105.163 Y131.688 E75.88352
G1 X105.758 Y131.765 E75.91345
G1 X106.39 Y132.036 E75.94775
G1 X106.925 Y132.442 E75.98126
G1 X107.331 Y132.977 E76.01477
G1 X107.602 Y133.609 E76.04908
G1 X107.679 Y134.204 E76.07901
G1 X107.679 Y136.364 E76.18677
G1 X107.602 Y136.959 E76.2167
G1 X107.331 Y137.591 E76.25101
G1 X106.925 Y138.126 E76.28452
G1 X106.39 Y138.532 E76.31802
G1 X105.758 Y138.803 E76.35233
G1 X105.163 Y138.88 E76.38226
G1 X53.92 Y138.88 E78.93879
G1 X53.324 Y138.796 E78.96881
G1 X52.692 Y138.532 E79.00299
G1 X52.154 Y138.124 E79.03667
G1 X51.746 Y137.593 E79.07008
G1 X51.482 Y136.957 E79.10444
G1 X51.404 Y136.364 E79.13428
G1 X51.404 Y134.204 E79.24204
G1 X51.481 Y133.613 E79.27177
G1 X51.747 Y132.975 E79.30626
G1 X52.154 Y132.444 E79.33964
G1 X52.692 Y132.036 E79.37332
G1 X53.324 Y131.772 E79.40749
G0 F4500 X53.209 Y131.492
G0 X51.986 Y132.271
G0 X51.251 Y133.547
G0 X51.161 Y136.338
G0 X53.209 Y143.326
G0 X53.324 Y143.606
G1 F1500 X53.92 Y143.522 E79.43752
G1 X105.163 Y143.522 E81.99405
G1 X105.758 Y143.599 E82.02398
G1 X106.39 Y143.87 E82.05829
G1 X106.929 Y144.28 E82.09207
G1 X107.331 Y144.811 E82.1253
G1 X107.602 Y145.443 E82.15961
G1 X107.679 Y146.038 E82.18954
G1 X107.679 Y148.198 E82.2973
G1 X107.602 Y148.793 E82.32723
G1 X107.331 Y149.425 E82.36154
G1 X106.925 Y149.96 E82.39505
G1 X106.39 Y150.366 E82.42855
G1 X105.758 Y150.637 E82.46286
G1 X105.163 Y150.714 E82.49279
G1 X53.92 Y150.714 E85.04932
G1 X53.324 Y150.63 E85.07935
G1 X52.692 Y150.366 E85.11352
G1 X52.154 Y149.958 E85.1472
G1 X51.746 Y149.427 E85.18061
G1 X51.482 Y148.791 E85.21497
G1 X51.404 Y148.198 E85.24481
G1 X51.404 Y146.038 E85.35257
G1 X51.481 Y145.447 E85.3823
G1 X51.747 Y144.809 E85.41679
G1 X52.154 Y144.278 E85.45017
G1 X52.692 Y143.87 E85.48385
G1 X53.324 Y143.606 E85.51803
G0 F4500 X53.209 Y143.326
G0 X51.986 Y144.105
G0 X51.251 Y145.381
G0 X51.161 Y148.172
G0 X53.209 Y155.16
G0 X53.324 Y155.44
G1 F1500 X53.92 Y155.356 E85.54805
G1 X105.163 Y155.356 E88.10458
G1 X105.758 Y155.433 E88.13451
G1 X106.39 Y155.704 E88.16882
G1 X106.925 Y156.11 E88.20232
G1 X107.331 Y156.645 E88.23583
G1 X107.602 Y157.277 E88.27014
G1 X107.679 Y157.872 E88.30007
G1 X107.679 Y160.032 E88.40783
G1 X107.602 Y160.627 E88.43776
G1 X107.331 Y161.259 E88.47207
G1 X106.925 Y161.794 E88.50558
G1 X106.39 Y162.2 E88.53909
G1 X105.758 Y162.471 E88.57339
G1 X105.163 Y162.548 E88.60332
G1 X53.998 Y162.553 E91.15596
G1 X53.32 Y162.463 E91.19008
G1 X52.699 Y162.204 E91.22365
G1 X52.158 Y161.797 E91.25742
G1 X51.746 Y161.261 E91.29115
G1 X51.482 Y160.625 E91.32551
G1 X51.404 Y160.032 E91.35535
G1 X51.404 Y157.872 E91.46311
G1 X51.481 Y157.281 E91.49284
G1 X51.747 Y156.643 E91.52733
G1 X52.154 Y156.112 E91.56071
G1 X52.692 Y155.704 E91.59439
G1 X53.324 Y155.44 E91.62856
G0 F4500 X53.209 Y155.16
G0 X51.986 Y155.939
G0 X51.251 Y157.215
G0 X51.161 Y160.006
G0 X51.535 Y161.374
G0 X52.32 Y162.22
G0 X60.06 Y167.29
G0 X60.241 Y167.528
G1 F1500 X60.868 Y167.268 E91.66243
G1 X61.54 Y167.186 E91.6962
G1 X105.163 Y167.19 E93.87256
G1 X105.758 Y167.267 E93.9025
G1 X106.39 Y167.538 E93.9368
G1 X106.925 Y167.944 E93.97031
G1 X107.331 Y168.479 E94.00382
G1 X107.602 Y169.111 E94.03812
G1 X107.679 Y169.706 E94.06806
G1 X107.679 Y171.866 E94.17582
G1 X107.602 Y172.461 E94.20575
G1 X107.331 Y173.093 E94.24006
G1 X106.927 Y173.627 E94.27346
G1 X106.388 Y174.042 E94.3074
G1 X105.757 Y174.299 E94.34139
G1 X105.163 Y174.382 E94.37132
G1 X61.461 Y174.381 E96.55162
G1 X60.864 Y174.302 E96.58166
G1 X60.24 Y174.043 E96.61537
G1 X59.697 Y173.626 E96.64953
G1 X59.286 Y173.091 E96.68318
G1 X59.028 Y172.457 E96.71733
G1 X58.946 Y171.866 E96.7471
G1 X58.944 Y169.725 E96.85392
G1 X59.026 Y169.106 E96.88507
G1 X59.287 Y168.482 E96.91881
G1 X59.7 Y167.944 E96.95265
G1 X60.241 Y167.528 E96.9867
G0 F4500 X60.06 Y167.29
G0 X61.488 Y166.947
G0 X105.137 Y166.947
G0 X112.026 Y169.667
G0 X112.321 Y169.706
G1 F1500 X112.398 Y169.111 E97.01663
G1 X112.669 Y168.479 E97.05094
G1 X113.075 Y167.944 E97.08444
G1 X113.61 Y167.538 E97.11795
G1 X114.242 Y167.267 E97.15226
G1 X114.837 Y167.19 E97.18219
G1 X158.506 Y167.191 E99.36085
G1 X159.096 Y167.274 E99.39057
G1 X159.72 Y167.541 E99.42443
G1 X160.252 Y167.954 E99.45803
G1 X160.658 Y168.49 E99.49158
G1 X160.917 Y169.118 E99.52547
G1 X160.996 Y169.728 E99.55616
G1 X160.994 Y171.866 E99.66282
G1 X160.912 Y172.459 E99.69269
G1 X160.643 Y173.099 E99.72733
G1 X160.238 Y173.624 E99.76041
G1 X159.707 Y174.039 E99.79403
G1 X159.073 Y174.304 E99.82831
G1 X158.478 Y174.382 E99.85825
G1 X114.915 Y174.387 E102.03162
G1 X114.247 Y174.306 E102.06519
G1 X113.613 Y174.041 E102.09947
G1 X113.073 Y173.627 E102.13342
G1 X112.669 Y173.093 E102.16682
G1 X112.398 Y172.461 E102.20113
G1 X112.321 Y171.866 E102.23106
G1 X112.321 Y169.706 E102.33883
G0 F4500 X112.026 Y169.667
G0 X114.203 Y162.765
G0 X114.242 Y162.471
G1 F1500 X113.61 Y162.2 E102.37313
G1 X113.075 Y161.794 E102.40664
G1 X112.669 Y161.259 E102.44015
G1 X112.398 Y160.627 E102.47445
G1 X112.321 Y160.032 E102.50439
G1 X112.321 Y157.872 E102.61215
G1 X112.398 Y157.277 E102.64208
G1 X112.669 Y156.645 E102.67639
G1 X113.075 Y156.11 E102.70989
G1 X113.61 Y155.704 E102.7434
G1 X114.242 Y155.433 E102.77771
G1 X114.837 Y155.356 E102.80764
G1 X166.08 Y155.356 E105.36416
G1 X166.676 Y155.44 E105.39419
G1 X167.308 Y155.704 E105.42836
G1 X167.846 Y156.112 E105.46205
G1 X168.253 Y156.643 E105.49543
G1 X168.52 Y157.284 E105.53007
G1 X168.6 Y157.95 E105.56354
G1 X168.6 Y159.954 E105.66352
G1 X168.519 Y160.623 E105.69714
G1 X168.253 Y161.261 E105.73162
G1 X167.842 Y161.797 E105.76532
G1 X167.301 Y162.204 E105.7991
G1 X166.679 Y162.464 E105.83273
G1 X166.041 Y162.551 E105.86485
G1 X114.837 Y162.548 E108.41943
G1 X114.242 Y162.471 E108.44936
G0 F4500 X114.203 Y162.765
G0 X112.904 Y161.965
G0 X112.168 Y160.689
G0 X112.078 Y157.898
G0 X114.203 Y150.931
G0 X114.242 Y150.637
G1 F1500 X113.61 Y150.366 E108.48367
G1 X113.075 Y149.96 E108.51718
G1 X112.669 Y149.425 E108.55069
G1 X112.398 Y148.793 E108.58499
G1 X112.321 Y148.198 E108.61492
