;FLAVOR:Marlin
;TIME:15247
;Filament used: 12.8001m
;Layer height: 0.2
;MINX:45.2
;MINY:48.229
;MINZ:0.3
;MAXX:175.664
;MAXY:204.065
;MAXZ:15.9
;Generated with Cura_SteamEngine 5.4.0
M140 S65
M105
M190 S65
M104 S215
M105
M109 S215
M82 ;absolute extrusion mode
G28 ;Home
G1 Z15.0 F6000 ;Move the platform down 15mm
;Prime the extruder
G92 E0
G1 F200 E3
G92 E0
G92 E0
G92 E0
G1 F2700 E-5
;LAYER_COUNT:79
;LAYER:0
M107
;MESH:Moonlander tenting kit v10.stl
G0 F4500 X48.309 Y59.039 Z0.3
;TYPE:WALL-INNER
G1 F2700 E0
G1 F1500 X47.643 Y59.645 E0.04492
G1 X47.073 Y60.347 E0.09004
G1 X46.612 Y61.135 E0.13558
G1 X46.274 Y61.985 E0.18122
G1 X46.071 Y62.867 E0.22637
G1 X46 Y63.806 E0.27335
G1 X46 Y134.64 E3.80728
G1 X46.067 Y135.631 E3.85683
G1 X46.275 Y136.55 E3.90384
G1 X46.632 Y137.437 E3.95154
G1 X47.125 Y138.257 E3.99928
G1 X47.731 Y138.978 E4.04627
G1 X48.445 Y139.594 E4.09331
G1 X49.253 Y140.096 E4.14077
G1 X50.131 Y140.463 E4.18825
G1 X51.055 Y140.686 E4.23567
G1 X52.043 Y140.765 E4.28512
G1 X71.259 Y140.765 E5.24381
G1 X73.826 Y140.875 E5.37199
G1 X76.359 Y141.195 E5.49937
G1 X78.789 Y141.702 E5.62321
G1 X81.321 Y142.457 E5.75503
G1 X83.709 Y143.393 E5.88299
G1 X86.012 Y144.522 E6.01096
G1 X88.214 Y145.837 E6.13891
G1 X90.237 Y147.282 E6.26294
G1 X92.244 Y148.984 E6.39423
G1 X94.002 Y150.743 E6.5183
G1 X95.712 Y152.759 E6.65019
G1 X97.193 Y154.841 E6.77766
G1 X98.502 Y157.045 E6.90555
G1 X99.61 Y159.315 E7.03157
G1 X100.555 Y161.741 E7.16146
G1 X101.271 Y164.151 E7.28689
G1 X101.802 Y166.7 E7.41679
G1 X102.117 Y169.241 E7.54453
G1 X102.218 Y171.606 E7.66263
G1 X102.22 Y194.732 E8.81639
G1 X102.309 Y195.97 E8.87831
G1 X102.568 Y197.16 E8.93907
G1 X102.991 Y198.296 E8.99955
G1 X103.568 Y199.354 E9.05967
G1 X104.295 Y200.325 E9.12019
G1 X105.158 Y201.189 E9.18112
G1 X106.129 Y201.915 E9.2416
G1 X107.189 Y202.494 E9.30186
G1 X108.325 Y202.917 E9.36234
G1 X109.511 Y203.175 E9.42289
G1 X110.758 Y203.265 E9.48527
G1 X163.964 Y203.265 E12.13972
G1 X165.309 Y203.176 E12.20697
G1 X166.582 Y202.923 E12.27173
G1 X167.833 Y202.499 E12.33763
G1 X168.999 Y201.924 E12.40249
G1 X170.08 Y201.2 E12.4674
G1 X171.073 Y200.331 E12.53323
G1 X171.935 Y199.347 E12.59849
G1 X172.658 Y198.264 E12.66346
G1 X173.234 Y197.098 E12.72834
G1 X173.657 Y195.847 E12.79423
G1 X173.911 Y194.574 E12.85899
G1 X174 Y193.229 E12.92624
G1 X174 Y63.797 E19.38363
G1 X173.941 Y62.945 E19.42623
G1 X173.775 Y62.146 E19.46695
G1 X173.506 Y61.388 E19.50707
G1 X173.124 Y60.648 E19.54862
G1 X168.039 Y52.259 E20.03804
G1 X160.658 Y52.3 E20.40628
G1 X151 Y52.305 E20.88812
G1 X151 Y58.723 E21.20832
G1 X150.924 Y59.109 E21.22794
G1 X150.6 Y59.524 E21.25421
G1 F1398.6 X150.177 Y59.737 E21.27955
G1 X150.68 Y59.765 E21.30651
G1 F1500 X158.473 Y59.765 E21.6953
G1 X159.177 Y59.859 E21.73074
G1 X159.905 Y60.16 E21.77004
G1 X160.531 Y60.641 E21.80942
G1 X161.016 Y61.289 E21.84981
G1 X161.305 Y61.984 E21.88736
G1 X161.399 Y62.702 E21.92348
G1 X161.394 Y64.861 E22.0312
G1 X161.304 Y65.545 E22.06562
G1 X161.008 Y66.264 E22.10441
G1 X160.541 Y66.878 E22.14289
G1 X159.927 Y67.358 E22.18178
G1 X159.206 Y67.665 E22.22087
G1 X158.498 Y67.765 E22.25655
G1 X114.827 Y67.762 E24.4353
G1 X114.141 Y67.674 E24.46981
G1 X113.438 Y67.382 E24.50778
G1 X112.801 Y66.905 E24.54749
G1 X112.312 Y66.271 E24.58743
G1 X112.009 Y65.544 E24.62673
G1 X111.92 Y64.855 E24.66139
G1 X111.917 Y62.693 E24.76925
G1 X112.01 Y61.985 E24.80487
G1 X112.313 Y61.256 E24.84426
G1 X112.789 Y60.637 E24.88322
G1 X113.412 Y60.158 E24.92242
G1 X114.16 Y59.856 E24.96267
G1 X114.782 Y59.773 E24.99398
G1 F1428.6 X115.5 Y59.743 E25.03162
G1 X114.97 Y59.571 E25.06081
G1 F1500 X114.863 Y59.494 E25.06739
G1 X114.611 Y59.181 E25.08744
G1 X114.5 Y58.874 E25.10372
G1 X114.5 Y52.305 E25.43145
G1 X82.03 Y52.3 E27.05139
G1 X80.572 Y52.29 E27.12413
G1 X68.448 Y52.289 E27.729
G1 X65.545 Y52.258 E27.87384
G1 X49.926 Y58.136 E28.70643
G1 X49.06 Y58.539 E28.75408
G1 X48.309 Y59.039 E28.79909
G0 F4500 X48.063 Y58.723
G1 F1500 X47.352 Y59.369 E28.84702
G1 X46.743 Y60.119 E28.89522
G1 X46.251 Y60.959 E28.94378
G1 X45.891 Y61.866 E28.99247
G1 X45.674 Y62.807 E29.04065
G1 X45.6 Y63.791 E29.08988
G1 X45.6 Y134.653 E32.6252
G1 X45.67 Y135.689 E32.677
G1 X45.892 Y136.67 E32.72718
G1 X46.273 Y137.616 E32.77806
G1 X46.798 Y138.49 E32.82893
G1 X47.445 Y139.26 E32.8791
G1 X48.207 Y139.918 E32.92933
G1 X49.069 Y140.452 E32.97992
G1 X50.006 Y140.844 E33.0306
G1 X50.992 Y141.082 E33.0812
G1 X52.027 Y141.165 E33.133
G1 X71.242 Y141.165 E34.09164
G1 X73.776 Y141.272 E34.21818
G1 X76.277 Y141.587 E34.34394
G1 X78.756 Y142.106 E34.4703
G1 X81.129 Y142.813 E34.59383
G1 X83.533 Y143.752 E34.72259
G1 X85.764 Y144.842 E34.84647
G1 X87.981 Y146.162 E34.9752
G1 X90.033 Y147.63 E35.10107
G1 X91.961 Y149.267 E35.22725
G1 X93.719 Y151.025 E35.35129
G1 X95.386 Y152.992 E35.47993
G1 X96.849 Y155.045 E35.6057
G1 X98.143 Y157.221 E35.732
G1 X99.234 Y159.454 E35.85599
G1 X100.172 Y161.855 E35.9846
G1 X100.877 Y164.225 E36.10796
G1 X101.405 Y166.75 E36.23665
G1 X101.713 Y169.209 E36.36029
G1 X101.818 Y171.623 E36.48084
G1 X101.82 Y194.746 E37.63445
G1 X101.912 Y196.027 E37.69853
G1 X102.183 Y197.273 E37.76214
G1 X102.626 Y198.463 E37.82549
G1 X103.231 Y199.57 E37.88843
G1 X103.991 Y200.588 E37.95181
G1 X104.895 Y201.492 E38.01559
G1 X105.912 Y202.252 E38.07893
G1 X107.022 Y202.859 E38.14205
G1 X108.212 Y203.302 E38.2054
G1 X109.454 Y203.572 E38.26881
G1 X110.744 Y203.665 E38.33334
G1 X163.977 Y203.665 E40.98914
G1 X165.361 Y203.573 E41.05834
G1 X166.686 Y203.311 E41.12573
G1 X167.986 Y202.869 E41.19423
G1 X169.2 Y202.271 E41.26175
G1 X170.324 Y201.518 E41.32924
G1 X171.356 Y200.614 E41.39769
G1 X172.253 Y199.591 E41.46557
G1 X173.005 Y198.465 E41.53312
G1 X173.604 Y197.251 E41.60066
G1 X174.045 Y195.951 E41.66915
G1 X174.308 Y194.626 E41.73654
G1 X174.4 Y193.242 E41.80574
G1 X174.4 Y63.783 E48.26448
G1 X174.338 Y62.89 E48.30914
G1 X174.161 Y62.038 E48.35255
G1 X173.874 Y61.229 E48.39538
G1 X173.474 Y60.453 E48.43893
G1 X168.264 Y51.857 E48.94041
G1 X160.658 Y51.9 E49.31988
G1 X150.6 Y51.905 E49.82168
G1 X150.6 Y58.723 E50.16183
G1 X150.555 Y58.955 E50.17362
G1 X150.36 Y59.204 E50.1894
G1 X150.086 Y59.323 E50.2043
G1 X115.5 Y59.323 E51.9298
G1 X115.182 Y59.232 E51.94631
G1 X114.966 Y58.998 E51.96219
G1 X114.9 Y58.816 E51.97185
G1 X114.9 Y51.905 E52.31664
G1 X82.033 Y51.9 E53.95639
G1 X80.572 Y51.89 E54.02928
G1 X68.452 Y51.889 E54.63395
G1 X65.474 Y51.857 E54.78253
G1 X49.771 Y57.767 E55.6196
G1 X48.864 Y58.189 E55.66951
G1 X48.063 Y58.723 E55.71754
G0 F4500 X48.249 Y58.957
G0 X58.729 Y62.054
G0 X59.029 Y62.094
G1 F1500 X59.283 Y61.465 E55.75138
G1 X59.701 Y60.921 E55.78561
G1 X60.236 Y60.516 E55.81908
G1 X60.867 Y60.249 E55.85327
G1 X61.54 Y60.165 E55.8871
G1 X105.165 Y60.17 E58.06356
G1 X105.759 Y60.254 E58.09349
G1 X106.385 Y60.513 E58.12729
G1 X106.924 Y60.928 E58.16123
G1 X107.348 Y61.48 E58.19596
G1 X107.604 Y62.114 E58.23007
G1 X107.683 Y62.763 E58.26269
G1 X107.679 Y64.845 E58.36656
G1 X107.595 Y65.441 E58.39659
G1 X107.331 Y66.073 E58.43076
G1 X106.919 Y66.615 E58.46472
G1 X106.391 Y67.013 E58.49771
G1 X105.759 Y67.284 E58.53202
G1 X105.163 Y67.361 E58.562
G1 X61.461 Y67.36 E60.7423
G1 X60.865 Y67.281 E60.7723
G1 X60.241 Y67.023 E60.80598
G1 X59.698 Y66.607 E60.84011
G1 X59.286 Y66.069 E60.87392
G1 X59.029 Y65.438 E60.90791
G1 X58.944 Y64.826 E60.93873
G1 X58.947 Y62.684 E61.0456
G1 X59.029 Y62.094 E61.07532
G0 F4500 X58.729 Y62.054
G0 X53.916 Y71.702
G0 X53.955 Y72
G1 F1500 X105.165 Y72.004 E63.6302
G1 X105.761 Y72.089 E63.66023
G1 X106.389 Y72.35 E63.69416
G1 X106.925 Y72.758 E63.72777
G1 X107.348 Y73.315 E63.76266
G1 X107.604 Y73.948 E63.79673
G1 X107.683 Y74.597 E63.82934
G1 X107.679 Y76.679 E63.93322
G1 X107.595 Y77.275 E63.96324
G1 X107.331 Y77.907 E63.99741
G1 X106.919 Y78.449 E64.03138
G1 X106.391 Y78.847 E64.06437
G1 X105.759 Y79.118 E64.09868
G1 X105.163 Y79.195 E64.12866
G1 X53.912 Y79.194 E66.68558
G1 X53.324 Y79.111 E66.71521
G1 X52.695 Y78.848 E66.74922
G1 X52.157 Y78.44 E66.78291
G1 X51.744 Y77.901 E66.81678
G1 X51.482 Y77.272 E66.85078
G1 X51.404 Y76.679 E66.88062
G1 X51.405 Y74.518 E66.98843
G1 X51.484 Y73.922 E67.01842
G1 X51.743 Y73.297 E67.05218
G1 X52.159 Y72.753 E67.08634
G1 X52.702 Y72.345 E67.12023
G1 X53.318 Y72.09 E67.15349
G1 X53.955 Y72 E67.18559
G0 F4500 X53.916 Y71.702
G0 X52.578 Y72.134
G0 X51.535 Y73.177
G0 X51.161 Y74.545
G0 X51.161 Y76.653
G0 X53.207 Y83.642
G0 X53.322 Y83.923
G1 F1500 X53.92 Y83.837 E67.21573
G1 X105.165 Y83.838 E69.77235
G1 X105.761 Y83.923 E69.80239
G1 X106.389 Y84.184 E69.83632
G1 X106.925 Y84.592 E69.86992
G1 X107.348 Y85.149 E69.90482
G1 X107.604 Y85.782 E69.93888
G1 X107.683 Y86.431 E69.9715
G1 X107.679 Y88.513 E70.07537
G1 X107.595 Y89.109 E70.1054
G1 X107.331 Y89.741 E70.13957
G1 X106.919 Y90.283 E70.17354
G1 X106.391 Y90.681 E70.20652
G1 X105.759 Y90.952 E70.24083
G1 X105.163 Y91.029 E70.27081
G1 X53.912 Y91.028 E72.82774
G1 X53.324 Y90.945 E72.85736
G1 X52.695 Y90.682 E72.89138
G1 X52.157 Y90.274 E72.92506
G1 X51.744 Y89.735 E72.95894
G1 X51.482 Y89.106 E72.99293
G1 X51.404 Y88.513 E73.02277
G1 X51.405 Y86.352 E73.13059
G1 X51.484 Y85.756 E73.16058
G1 X51.743 Y85.131 E73.19433
G1 X52.156 Y84.592 E73.22821
G1 X52.694 Y84.184 E73.2619
G1 X53.322 Y83.923 E73.29583
G0 F4500 X53.207 Y83.642
G0 X51.986 Y84.42
G0 X51.251 Y85.697
G0 X51.161 Y88.487
G0 X53.207 Y95.476
G0 X53.322 Y95.757
G1 F1500 X53.92 Y95.671 E73.32597
G1 X105.165 Y95.672 E75.88259
G1 X105.761 Y95.757 E75.91263
G1 X106.389 Y96.018 E75.94656
G1 X106.929 Y96.429 E75.98041
G1 X107.348 Y96.983 E76.01507
G1 X107.604 Y97.616 E76.04913
G1 X107.683 Y98.265 E76.08175
G1 X107.679 Y100.347 E76.18562
G1 X107.595 Y100.943 E76.21565
G1 X107.331 Y101.575 E76.24982
G1 X106.919 Y102.117 E76.28379
G1 X106.391 Y102.515 E76.31677
G1 X105.759 Y102.786 E76.35108
G1 X105.163 Y102.863 E76.38106
G1 X53.912 Y102.862 E78.93798
G1 X53.324 Y102.779 E78.96761
G1 X52.695 Y102.516 E79.00162
G1 X52.157 Y102.108 E79.03531
G1 X51.744 Y101.569 E79.06919
G1 X51.482 Y100.94 E79.10318
G1 X51.404 Y100.347 E79.13302
G1 X51.405 Y98.186 E79.24084
G1 X51.484 Y97.59 E79.27083
G1 X51.743 Y96.965 E79.30458
G1 X52.156 Y96.426 E79.33846
G1 X52.694 Y96.018 E79.37215
G1 X53.322 Y95.757 E79.40608
G0 F4500 X53.207 Y95.476
G0 X51.986 Y96.254
G0 X51.251 Y97.531
G0 X51.161 Y100.321
G0 X53.207 Y107.31
G0 X53.322 Y107.591
G1 F1500 X53.92 Y107.505 E79.43622
G1 X105.165 Y107.506 E81.99284
G1 X105.761 Y107.591 E82.02288
G1 X106.389 Y107.852 E82.0568
G1 X106.925 Y108.26 E82.09041
G1 X107.348 Y108.817 E82.12531
G1 X107.604 Y109.45 E82.15937
G1 X107.683 Y110.099 E82.19199
G1 X107.679 Y112.181 E82.29586
G1 X107.595 Y112.777 E82.32589
G1 X107.331 Y113.409 E82.36006
G1 X106.919 Y113.951 E82.39403
G1 X106.391 Y114.349 E82.42701
G1 X105.759 Y114.62 E82.46132
G1 X105.163 Y114.697 E82.4913
G1 X53.912 Y114.696 E85.04822
G1 X53.324 Y114.613 E85.07785
G1 X52.695 Y114.35 E85.11186
G1 X52.157 Y113.942 E85.14555
G1 X51.744 Y113.403 E85.17943
G1 X51.482 Y112.774 E85.21342
G1 X51.404 Y112.181 E85.24326
G1 X51.405 Y110.02 E85.35107
G1 X51.484 Y109.424 E85.38107
G1 X51.743 Y108.799 E85.41482
G1 X52.156 Y108.26 E85.4487
G1 X52.694 Y107.852 E85.48239
G1 X53.322 Y107.591 E85.51631
G0 F4500 X53.207 Y107.31
G0 X51.986 Y108.088
G0 X51.251 Y109.365
G0 X51.161 Y112.155
G0 X53.207 Y119.144
G0 X53.322 Y119.425
G1 F1500 X53.92 Y119.339 E85.54646
G1 X105.165 Y119.34 E88.10308
G1 X105.761 Y119.425 E88.13312
G1 X106.389 Y119.686 E88.16704
G1 X106.925 Y120.094 E88.20065
G1 X107.348 Y120.651 E88.23554
G1 X107.604 Y121.284 E88.26961
G1 X107.683 Y121.933 E88.30223
G1 X107.679 Y124.015 E88.4061
G1 X107.595 Y124.611 E88.43613
G1 X107.331 Y125.243 E88.4703
G1 X106.919 Y125.785 E88.50427
G1 X106.391 Y126.183 E88.53725
G1 X105.759 Y126.454 E88.57156
G1 X105.163 Y126.531 E88.60154
G1 X53.914 Y126.531 E91.15836
G1 X53.32 Y126.446 E91.1883
G1 X52.702 Y126.188 E91.22171
G1 X52.161 Y125.781 E91.25549
G1 X51.744 Y125.237 E91.28968
G1 X51.482 Y124.608 E91.32368
G1 X51.404 Y124.015 E91.35352
G1 X51.405 Y121.854 E91.46133
G1 X51.484 Y121.258 E91.49133
G1 X51.743 Y120.632 E91.52512
G1 X52.156 Y120.094 E91.55896
G1 X52.694 Y119.686 E91.59265
G1 X53.322 Y119.425 E91.62658
G0 F4500 X53.207 Y119.144
G0 X51.986 Y119.922
G0 X51.251 Y121.199
G0 X51.161 Y123.989
G0 X51.535 Y125.357
G0 X52.153 Y126.076
G0 X60.058 Y131.271
G0 X60.239 Y131.509
G1 F1500 X60.869 Y131.248 E91.6606
G1 X61.54 Y131.165 E91.69433
G1 X105.165 Y131.17 E93.87079
G1 X105.761 Y131.255 E93.90083
G1 X106.389 Y131.516 E93.93476
G1 X106.925 Y131.923 E93.96833
G1 X107.332 Y132.459 E94.00191
G1 X107.595 Y133.089 E94.03597
G1 X107.678 Y133.685 E94.06599
G1 X107.681 Y135.817 E94.17236
G1 X107.596 Y136.441 E94.20377
G1 X107.331 Y137.073 E94.23797
G1 X106.919 Y137.615 E94.27193
G1 X106.391 Y138.013 E94.30492
G1 X105.759 Y138.284 E94.33923
G1 X105.163 Y138.361 E94.36921
G1 X61.461 Y138.36 E96.54951
G1 X60.869 Y138.283 E96.57929
G1 X60.24 Y138.022 E96.61327
G1 X59.698 Y137.607 E96.64732
G1 X59.289 Y137.074 E96.68084
G1 X59.023 Y136.436 E96.71533
G1 X58.946 Y135.84 E96.74531
G1 X58.944 Y133.704 E96.85188
G1 X59.028 Y133.082 E96.88319
G1 X59.285 Y132.463 E96.91663
G1 X59.7 Y131.923 E96.9506
G1 X60.239 Y131.509 E96.98451
G0 F4500 X60.058 Y131.271
G0 X59.077 Y132.342
G0 X58.703 Y133.711
G0 X58.703 Y135.819
G0 X59.077 Y137.187
G0 X60.12 Y138.23
G0 X60.998 Y138.539
G0 X94.697 Y144.807
G0 X94.971 Y144.921
G1 F1500 X95.231 Y144.297 E97.01824
G1 X95.646 Y143.757 E97.05222
G1 X96.186 Y143.342 E97.08619
G1 X96.813 Y143.082 E97.12006
G1 X97.486 Y142.999 E97.15389
G1 X105.165 Y143.004 E97.53699
G1 X105.761 Y143.089 E97.56703
G1 X106.389 Y143.35 E97.60096
G1 X106.925 Y143.757 E97.63454
G1 X107.332 Y144.293 E97.66811
G1 X107.595 Y144.923 E97.70217
G1 X107.678 Y145.519 E97.73219
G1 X107.681 Y147.651 E97.83856
G1 X107.596 Y148.275 E97.86998
G1 X107.331 Y148.907 E97.90417
G1 X106.924 Y149.444 E97.93779
G1 X106.385 Y149.856 E97.97163
G1 X105.749 Y150.119 E98.00597
G1 X105.107 Y150.199 E98.03825
G1 X97.408 Y150.195 E98.42235
G1 X96.814 Y150.118 E98.45223
G1 X96.182 Y149.855 E98.48639
G1 X95.651 Y149.447 E98.51979
G1 X95.233 Y148.906 E98.5539
G1 X94.969 Y148.273 E98.58812
G1 X94.891 Y147.662 E98.61885
G1 X94.889 Y145.56 E98.72372
G1 X94.971 Y144.921 E98.75586
G0 F4500 X94.697 Y144.807
G0 X95.475 Y143.586
G0 X96.751 Y142.851
G0 X105.138 Y142.76
G0 X112.125 Y144.812
G0 X112.399 Y144.926
G1 F1500 X112.668 Y144.297 E98.78999
G1 X113.069 Y143.766 E98.82319
G1 X113.611 Y143.354 E98.85715
G1 X114.239 Y143.093 E98.89108
G1 X114.837 Y143.007 E98.92122
G1 X166.082 Y143.008 E101.47785
G1 X166.678 Y143.093 E101.50788
G1 X167.306 Y143.354 E101.54181
G1 X167.846 Y143.764 E101.57564
G1 X168.257 Y144.301 E101.60938
G1 X168.517 Y144.928 E101.64324
G1 X168.6 Y145.601 E101.67707
G1 X168.595 Y147.683 E101.78094
G1 X168.518 Y148.276 E101.81077
G1 X168.255 Y148.906 E101.84483
G1 X167.841 Y149.447 E101.87882
G1 X167.298 Y149.856 E101.91274
G1 X166.669 Y150.117 E101.94671
G1 X166.08 Y150.198 E101.97637
G1 X114.908 Y150.204 E104.52936
G1 X114.25 Y150.123 E104.56243
G1 X113.602 Y149.852 E104.59747
G1 X113.063 Y149.433 E104.63153
G1 X112.669 Y148.911 E104.66416
G1 X112.404 Y148.278 E104.6984
G1 X112.321 Y147.681 E104.72847
G1 X112.322 Y145.521 E104.83623
G1 X112.399 Y144.926 E104.86616
G0 F4500 X112.125 Y144.812
G0 X114.125 Y138.56
G0 X114.241 Y138.281
G1 F1500 X113.609 Y138.017 E104.90033
G1 X113.081 Y137.619 E104.93332
G1 X112.669 Y137.077 E104.96729
G1 X112.404 Y136.444 E105.00152
