;FLAVOR:Marlin
;TIME:178
;Filament used: 0.197994m
;Layer height: 0.075
;MINX:59.347
;MINY:96.387
;MINZ:0.3
;MAXX:159.813
;MAXY:107.523
;MAXZ:1.125
;TARGET_MACHINE.NAME:Unknown
;Generated with Cura_SteamEngine 5.6.0
M140 S70
M105
M190 S70
M104 S215
M105
M109 S215
M82 ;absolute extrusion mode
G28 ;Home
G1 Z15.0 F6000 ;Move the platform down 15mm
;Prime the extruder
G92 E0
G1 F200 E3
G92 E0
G92 E0
G92 E0
G1 F2700 E-5
;LAYER_COUNT:4
;LAYER:0
M107
;MESH:untitled.stl(2)
G0 F4500 X60.267 Y96.545 Z0.3
;TYPE:WALL-OUTER
G1 F2700 E0
G1 F1121.5 X159.733 Y96.544 E6.63718
G1 X159.733 Y97.08 E6.67295
G1 X60.267 Y97.08 E13.31013
G1 X60.267 Y96.545 E13.34583
G0 F4500 X60.267 Y96.745
G1 F2700 E8.34583
;MESH:untitled.stl(1)
G0 F4500 X60.5 Y96.745
G0 X60.47 Y98.012
G0 X60.469 Y98.999
G0 X60.267 Y99.931
G1 F2700 E13.34583
G1 F1121.5 X159.733 Y99.93 E19.98301
G1 X159.733 Y100.466 E20.01878
G1 X60.267 Y100.466 E26.65596
G1 X60.267 Y99.931 E26.69166
G0 F4500 X60.267 Y100.131
G1 F2700 E21.69166
;MESH:untitled.stl
G0 F4500 X60.5 Y100.131
G0 X60.47 Y102.88
G0 X60.267 Y102.747
G1 F2700 E26.69166
G1 F1121.5 X159.733 Y102.746 E33.32884
G1 X159.733 Y103.282 E33.36461
G1 X60.267 Y103.282 E40.00179
G1 X60.267 Y102.747 E40.03749
G0 F4500 X60.267 Y102.947
G1 F2700 E35.03749
;MESH:untitled.stl(3)
G0 F4500 X60.5 Y102.947
G0 X60.47 Y104.214
G0 X60.469 Y105.899
G0 X60.267 Y106.831
G1 F2700 E40.03749
G1 F1123.6 X159.733 Y106.831 E46.66226
G1 X159.733 Y107.365 E46.69783
G1 X60.267 Y107.365 E53.32261
G1 X60.267 Y106.831 E53.35817
G0 F4500 X60.267 Y107.031
G1 F2700 E48.35817
;MESH:NONMESH
G0 F600 X60.267 Y107.031 Z0.575
G0 F4500 X60.5 Y107.031
G0 X60.469 Y105.899
G0 X59.347 Y104.202
G0 X59.347 Y99.011
G0 X60.47 Y98.012
G0 X60.2 Y96.387
;TIME_ELAPSED:47.458645
;LAYER:1
M140 S60
M106 S255
;TYPE:WALL-OUTER
;MESH:untitled.stl(2)
G1 F2700 E53.35817
G1 F1500 X60.2 Y97.237 E53.39704
G1 X159.8 Y97.237 E57.95202
G1 X159.8 Y96.387 E57.99089
G1 X60.2 Y96.387 E62.54587
G0 F6750 X60.2 Y96.587
G0 X60.625 Y96.812
;TYPE:WALL-INNER
G1 F1333.3 X159.375 Y96.812 E67.62648
G1 F2700 E62.62648
;MESH:untitled.stl(1)
G0 F6750 X159.53 Y98.102
G0 X159.53 Y98.908
G0 X159.8 Y99.773
;TYPE:WALL-OUTER
G1 F2700 E67.62648
G1 F1500 X60.2 Y99.773 E72.18146
G1 X60.2 Y100.623 E72.22033
G1 X159.8 Y100.623 E76.77531
G1 X159.8 Y99.773 E76.81418
G0 F6750 X159.6 Y99.773
G0 X159.375 Y100.198
;TYPE:WALL-INNER
G1 F1333.3 X60.625 Y100.198 E81.8948
G1 F2700 E76.8948
;MESH:untitled.stl
G0 F6750 X60.47 Y102.809
G0 X60.2 Y102.589
;TYPE:WALL-OUTER
G1 F2700 E81.8948
G1 F1500 X60.2 Y103.439 E81.93367
G1 X159.8 Y103.439 E86.48864
G1 X159.8 Y102.589 E86.52752
G1 X60.2 Y102.589 E91.08249
G0 F6750 X60.2 Y102.789
G0 X60.625 Y103.014
;TYPE:WALL-INNER
G1 F1333.3 X159.375 Y103.014 E96.16311
G1 F2700 E91.16311
;MESH:untitled.stl(3)
G0 F6750 X159.53 Y104.304
G0 X159.53 Y105.808
G0 X159.8 Y106.673
;TYPE:WALL-OUTER
G1 F2700 E96.16311
G1 F1500 X60.2 Y106.673 E100.71808
G1 X60.2 Y107.523 E100.75696
G1 X159.8 Y107.523 E105.31193
G1 X159.8 Y106.673 E105.35081
G0 F6750 X159.6 Y106.673
G0 X159.375 Y107.098
;TYPE:WALL-INNER
G1 F1333.3 X60.625 Y107.098 E110.43142
G1 F2700 E105.43142
;MESH:NONMESH
G0 F600 X60.625 Y107.098 Z0.85
G0 F6750 X60.47 Y105.808
G0 X59.347 Y104.292
G0 X59.347 Y98.92
G0 X60.47 Y98.102
G0 X60.2 Y96.429
;TIME_ELAPSED:98.905122
;LAYER:2
;TYPE:WALL-OUTER
;MESH:untitled.stl(2)
G1 F2700 E110.43142
G1 F1500 X60.2 Y97.195 E110.46645
G1 X159.8 Y97.195 E115.02143
G1 X159.8 Y96.429 E115.05646
G1 X60.2 Y96.429 E119.61143
G0 F9000 X60.2 Y96.629
G0 X60.583 Y96.812
;TYPE:WALL-INNER
G1 F1639.3 X159.417 Y96.812 E123.74718
G1 F2700 E118.74718
;MESH:untitled.stl(1)
G0 F9000 X159.532 Y98.061
G0 X159.53 Y98.949
G0 X159.8 Y99.815
;TYPE:WALL-OUTER
G1 F2700 E123.74718
G1 F1500 X60.2 Y99.815 E128.30216
G1 X60.2 Y100.581 E128.33719
G1 X159.8 Y100.581 E132.89217
G1 X159.8 Y99.815 E132.9272
G0 F9000 X159.6 Y99.815
G0 X159.417 Y100.198
;TYPE:WALL-INNER
G1 F1639.3 X60.583 Y100.198 E137.06295
G1 F2700 E132.06295
;MESH:untitled.stl
G0 F9000 X60.47 Y102.85
G0 X60.2 Y102.631
;TYPE:WALL-OUTER
G1 F2700 E137.06295
G1 F1500 X60.2 Y103.397 E137.09798
G1 X159.8 Y103.397 E141.65295
G1 X159.8 Y102.631 E141.68798
G1 X60.2 Y102.631 E146.24296
G0 F9000 X60.2 Y102.831
G0 X60.583 Y103.014
;TYPE:WALL-INNER
G1 F1639.3 X159.417 Y103.014 E150.37871
G1 F2700 E145.37871
;MESH:untitled.stl(3)
G0 F9000 X159.532 Y104.263
G0 X159.53 Y105.849
G0 X159.8 Y106.715
;TYPE:WALL-OUTER
G1 F2700 E150.37871
G1 F1500 X60.2 Y106.714 E154.93368
G1 X60.2 Y107.48 E154.96871
G1 X159.8 Y107.481 E159.52369
G1 X159.8 Y106.715 E159.55872
G0 F9000 X159.6 Y106.715
G0 X159.417 Y107.098
;TYPE:WALL-INNER
G1 F1639.3 X60.583 Y107.097 E163.69447
G1 F2700 E158.69447
;MESH:NONMESH
G0 F600 X60.583 Y107.097 Z1.125
G0 F9000 X60.468 Y105.849
G0 X59.347 Y104.25
G0 X59.347 Y98.961
G0 X60.47 Y98.061
G0 X60.188 Y96.624
;TIME_ELAPSED:147.006691
;LAYER:3
;TYPE:WALL-OUTER
;MESH:untitled.stl(2)
G1 F2700 E163.69447
G1 F1600 X159.813 Y96.624 E167.96583
G1 X159.813 Y97 E167.98195
G1 X60.188 Y97 E172.25331
G1 X60.188 Y96.624 E172.26943
G0 F9000 X60.188 Y96.824
G1 F2700 E167.26943
;MESH:untitled.stl(1)
G0 F9000 X60.188 Y97.852
G0 X60.188 Y99.158
G0 X60.188 Y100.011
G1 F2700 E172.26943
G1 F1600 X159.813 Y100.011 E176.5408
G1 X159.813 Y100.387 E176.55692
G1 X60.188 Y100.387 E180.82828
G1 X60.188 Y100.011 E180.8444
G0 F9000 X60.188 Y100.211
G1 F2700 E175.8444
;MESH:untitled.stl
G0 F9000 X60.187 Y102.826
G1 F2700 E180.8444
G1 F1600 X159.813 Y102.826 E185.1158
G1 X159.813 Y103.202 E185.13192
G1 X60.187 Y103.202 E189.40333
G1 X60.187 Y102.826 E189.41945
G0 F9000 X60.187 Y103.026
G1 F2700 E184.41945
;MESH:untitled.stl(3)
G0 F9000 X60.187 Y104.054
G0 X60.188 Y106.057
G0 X60.188 Y106.91
G1 F2700 E189.41945
G1 F1600 X159.813 Y106.91 E193.69081
G1 X159.813 Y107.286 E193.70693
G1 X60.188 Y107.286 E197.97829
G1 X60.188 Y106.91 E197.99441
G0 F9000 X60.188 Y107.11
;TIME_ELAPSED:178.068337
G1 F2700 E192.99441
M140 S0
M107
M104 S0
M140 S0
;Retract the filament
G92 E1
G1 E-1 F300
G28 X0 Y0
M84
M82 ;absolute extrusion mode
M104 S0
;End of Gcode
;SETTING_3 {"global_quality": "[general]\\nversion = 4\\nname = Aquila\\ndefinit
;SETTING_3 ion = custom\\n\\n[metadata]\\nsetting_version = 22\\nintent_category
;SETTING_3  = default\\ntype = quality_changes\\nquality_type = draft\\n\\n[valu
;SETTING_3 es]\\nadaptive_layer_height_enabled = True\\nadaptive_layer_height_va
;SETTING_3 riation = 0.2\\nadhesion_type = none\\nlayer_height = 0.075\\nmateria
;SETTING_3 l_bed_temperature_layer_0 = 70\\nsupport_enable = False\\n\\n", "extr
;SETTING_3 uder_quality": ["[general]\\nversion = 4\\nname = Aquila\\ndefinition
;SETTING_3  = custom\\n\\n[metadata]\\nsetting_version = 22\\nintent_category = 
;SETTING_3 default\\ntype = quality_changes\\nposition = 0\\nquality_type = draf
;SETTING_3 t\\n\\n[values]\\nbottom_thickness = 0.6\\ninfill_before_walls = Fals
;SETTING_3 e\\ninfill_enable_travel_optimization = True\\ninfill_overlap = 33\\n
;SETTING_3 infill_pattern = cubic\\ninfill_sparse_density = 8.0\\nmaterial_print
;SETTING_3 _temperature = 215.0\\nretraction_amount = 5\\nretraction_speed = 45\
;SETTING_3 \nspeed_print = 50\\nspeed_travel = 150\\nspeed_wall_x = 25\\nwall_th
;SETTING_3 ickness = 1.2\\nz_seam_type = shortest\\n\\n"]}
